svg/600/sharp/assignment_turned_in-fill.svg

<svg xmlns="http://www.w3.org/2000/svg" width="48" height="48" viewBox="0 -960 960 960"><path d="m421.87-314.869 283.217-283.783-54.305-54.305L421.87-424.044 305.957-539.957l-53.305 53.305L421.87-314.869Zm-316.001 209v-748.827h270.087q8.392-35 37.087-57.5 28.696-22.5 66.957-22.5 38.261 0 66.957 22.5 28.695 22.5 37.087 57.5h270.652v748.827H105.869ZM480-793.609q15.96 0 27.176-11.215Q518.391-816.04 518.391-832q0-15.96-11.215-27.176Q495.96-870.391 480-870.391q-15.96 0-27.176 11.215Q441.609-847.96 441.609-832q0 15.96 11.215 27.176Q464.04-793.609 480-793.609Z"/></svg>

<svg xmlns="http://www.w3.org/2000/svg" width="48" height="48" viewBox="0 -960 960 960"><path d="m421.87-314.87 283.22-283.78-54.31-54.31-228.91 228.92-115.91-115.92-53.31 53.31 169.22 171.78Zm-316 209V-854.7h270.09q8.39-35 37.08-57.5 28.7-22.5 66.96-22.5 38.26 0 66.96 22.5 28.69 22.5 37.08 57.5H854.7v748.83H105.87ZM480-793.61q15.96 0 27.18-11.21 11.21-11.22 11.21-27.18 0-15.96-11.21-27.18-11.22-11.21-27.18-11.21-15.96 0-27.18 11.21-11.21 11.22-11.21 27.18 0 15.96 11.21 27.18 11.22 11.21 27.18 11.21Z"/></svg>
